core/assets/icons/pen.svg

<svg width="24" height="24" viewBox="0 0 24 24" xmlns="http://www.w3.org/2000/svg"><g id="pen"><path id="Vector" d="M5 19H6.414L15.728 9.68602L14.314 8.27202L5 17.586V19ZM21 21H3V16.757L16.435 3.32202C16.6225 3.13455 16.8768 3.02924 17.142 3.02924C17.4072 3.02924 17.6615 3.13455 17.849 3.32202L20.678 6.15102C20.8655 6.33855 20.9708 6.59286 20.9708 6.85802C20.9708 7.12319 20.8655 7.37749 20.678 7.56502L9.243 19H21V21ZM15.728 6.85802L17.142 8.27202L18.556 6.85802L17.142 5.44402L15.728 6.85802V6.85802Z"/></g></svg>

<svg xmlns="http://www.w3.org/2000/svg" width="24" height="24" fill="none"><path fill="#191C22" d="M5 19h1.414l9.314-9.314-1.414-1.414L5 17.586V19Zm16 2H3v-4.243L16.435 3.322a1 1 0 0 1 1.414 0l2.829 2.829a1 1 0 0 1 0 1.414L9.243 19H21v2ZM15.728 6.858l1.414 1.414 1.414-1.414-1.414-1.414-1.414 1.414Z"/></svg>
